icons/semi-truck-two-color.svg

<?xml version="1.0" encoding="UTF-8"?><svg xmlns="http://www.w3.org/2000/svg" viewBox="0 0 50 50"><g id="uuid-b6ec4c88-4f24-493e-947e-5d7fdd08d515"><g><path d="M46.38,26.08c-.97,0-8.13,0-8.13,0-.13,0-.26-.05-.35-.15-.09-.09-.15-.22-.15-.35v-2.25h-.75v-3.99h-3.42c-.33,0-.67,.01-1,.02v-.46s0-.02,0-.03c0-.01,0-.02,0-.03v-6.2l-29.15-.03v23.71H7.62c-.19-.49-.3-1.01-.3-1.57,0-2.39,1.95-4.34,4.34-4.34s4.34,1.95,4.34,4.34c0,.55-.11,1.08-.3,1.57h3.04l13.85,.02v-.02h2.63c-.19-.47-.3-.99-.3-1.54,0-2.39,1.95-4.34,4.34-4.34s4.34,1.95,4.34,4.34c0,.55-.11,1.06-.3,1.54h3.03v.02h2.93l.06-10.27h-2.93Z" fill="#ffcd00"/><path d="M48.43,23.48c-.09-.09-.22-.15-.35-.15h-3.17l-4.31-6.51c-.09-.14-.25-.22-.42-.22h-8.34v-6.2c0-.28-.22-.5-.5-.5l-30.15-.03h0c-.13,0-.26,.05-.35,.15-.09,.09-.15,.22-.15,.35v24.71c0,.28,.22,.5,.5,.5H6.4c.4,2.56,2.59,4.53,5.26,4.53s4.86-1.96,5.26-4.52h17.08c.39,2.57,2.59,4.54,5.26,4.54s4.87-1.97,5.26-4.53h3.49c.27,0,.5-.22,.5-.5l.07-11.27c0-.13-.05-.26-.15-.36Zm-8.52-5.88l3.8,5.73c-1.79,0-5.38,0-6.7,0v-5.74h2.9ZM1.68,10.87l29.15,.03v6.2s0,.02,0,.03c0,.01,0,.02,0,.03v17.44h-13.85c-.09-2.87-2.44-5.18-5.32-5.18s-5.23,2.3-5.32,5.16H1.68V10.87Zm14.32,23.9c0,2.39-1.95,4.34-4.34,4.34s-4.34-1.95-4.34-4.34,1.95-4.34,4.34-4.34,4.34,1.95,4.34,4.34Zm27.6,.02c0,2.39-1.95,4.34-4.34,4.34s-4.34-1.95-4.34-4.34,1.95-4.34,4.34-4.34,4.34,1.95,4.34,4.34Zm3.91-.19h-2.93c-.1-2.86-2.44-5.15-5.32-5.15s-5.22,2.3-5.32,5.15h-2.1V17.6h4.18v6.23c-.01,.13,.04,.26,.13,.35,.09,.09,.22,.15,.35,.15,0,0,7.16,0,8.13,0h2.93l-.06,10.27Z"/></g></g><g id="uuid-ec04e32e-78a0-43a3-9b28-ffec1aaef639"><text transform="translate(-.32 55.12)" font-family="Roboto-Regular, Roboto" font-size="6"><tspan x="0" y="0">semi-truck</tspan></text></g></svg>

<svg xmlns="http://www.w3.org/2000/svg" viewBox="0 0 50 50"><g id="bb88b3dc-5651-40f4-9c2d-e2329f2bf035" data-name="ICONS"><path d="M46.38,26.08H38.25a.51.51,0,0,1-.35-.15.49.49,0,0,1-.15-.36V23.34H37v-4H33.58l-1,0v-.46s0,0,0,0V12.65l-29.15,0V36.33H7.62a4.25,4.25,0,0,1-.3-1.56,4.34,4.34,0,1,1,8.68,0,4.25,4.25,0,0,1-.3,1.56H32.58v0h1v0h1.64a4.29,4.29,0,0,1-.3-1.56,4.34,4.34,0,0,1,8.68,0,4.14,4.14,0,0,1-.3,1.54h3v0h2.93l.06-10.27Z" fill="#fdd600"/><path d="M48.43,23.48a.51.51,0,0,0-.36-.15H44.9l-4.31-6.51a.5.5,0,0,0-.42-.22H31.83V10.4a.5.5,0,0,0-.5-.5l-30.15,0h0A.5.5,0,0,0,.83,10a.53.53,0,0,0-.15.36V35.08a.5.5,0,0,0,.5.5H6.4a5.32,5.32,0,0,0,10.52,0H34a5.32,5.32,0,0,0,10.52,0H48a.51.51,0,0,0,.5-.5l.06-11.27A.5.5,0,0,0,48.43,23.48ZM39.91,17.6l3.79,5.73H37V17.6ZM1.68,10.87l29.15,0v6.23s0,0,0,0V34.6H17a5.33,5.33,0,0,0-10.65,0H1.68ZM16,34.77a4.34,4.34,0,1,1-4.34-4.35A4.35,4.35,0,0,1,16,34.77Zm27.6,0a4.34,4.34,0,1,1-4.34-4.34A4.35,4.35,0,0,1,43.6,34.79Zm3.91-.19H44.58a5.32,5.32,0,0,0-10.64,0H31.83v-17H36v6.23a.49.49,0,0,0,.15.36.51.51,0,0,0,.35.15H47.57Z" fill="#231f20"/></g><g id="a33171ef-d03b-4e29-8457-4b6f93b4e96f" data-name="LABELS"><text transform="translate(-0.32 55.12)" font-size="6" fill="#231f20" font-family="Roboto-Regular, Roboto">semi-truck</text></g></svg>
